Resources/aces_1.0.3/luts/sRGB_to_linear.spi1d
Version 1
From 0.000000 1.000000
Length 4096
Components 1
{
         0.0
         1.89009479072e-05
         3.78018958145e-05
         5.67028437217e-05
         7.5603791629e-05
         9.45047358982e-05
         0.000113405687443
         0.000132306638989
         0.000151207583258
         0.000170108527527
         0.000189009471796
         0.000207910430618
         0.000226811374887
         0.000245712319156
         0.000264613277977
         0.000283514207695
         0.000302415166516
         0.000321316125337
         0.000340217055054
         0.000359118013876
         0.000378018943593
         0.000396919902414
         0.000415820861235
         0.000434721790953
         0.000453622749774
         0.000472523679491
         0.000491424638312
         0.000510325597133
         0.000529226555955
         0.000548127456568
         0.000567028415389
         0.000585929374211
         0.000604830333032
         0.000623731291853
         0.000642632250674
         0.000661533151288
         0.000680434110109
         0.00069933506893
         0.000718236027751
         0.000737136986572
         0.000756037887186
         0.000774938846007
         0.000793839804828
         0.000812740763649
         0.000831641722471
         0.000850542623084
         0.000869443581905
         0.000888344540726
         0.000907245499548
         0.000926146458369
         0.000945047358982
         0.000963948317803
         0.000982849276625
         0.00100175023545
         0.00102065119427
         0.00103955215309
         0.00105845311191
         0.00107735407073
         0.00109625491314
         0.00111515587196
         0.00113405683078
         0.0011529577896
         0.00117185874842
         0.00119075970724
         0.00120966066606
         0.00122856162488
         0.00124746258371
         0.00126636354253
         0.00128526450135
         0.00130416534375
         0.00132306630258
         0.0013419672614
         0.00136086822022
         0.00137976917904
         0.00139867013786
         0.00141757109668
         0.0014364720555
         0.00145537301432
         0.00147427397314
         0.00149317481555
         0.00151207577437
         0.00153097673319
         0.00154987769201
         0.00156877865084
         0.00158767960966
         0.00160658056848
         0.0016254815273
         0.00164438248612
         0.00166328344494
         0.00168218428735
         0.00170108524617
         0.00171998620499
         0.00173888716381
         0.00175778812263
         0.00177668908145
         0.00179559004027
         0.0018144909991
         0.00183339195792
         0.00185229291674
         0.00187119387556
         0.00189009471796
         0.00190899567679
         0.00192789663561
         0.00194679759443
         0.00196569855325
         0.00198459951207
         0.00200350047089
         0.00202240142971
         0.00204130238853
         0.00206020334736
         0.00207910430618
         0.002098005265
         0.00211690622382
         0.00213580718264
         0.00215470814146
         0.00217360910028
         0.00219250982627
         0.00221141078509
         0.00223031174392
         0.00224921270274
         0.00226811366156
         0.00228701462038
         0.0023059155792
         0.00232481653802
         0.00234371749684
         0.00236261845566
         0.00238151941448
         0.00240042037331
         0.00241932133213
         0.00243822229095
         0.00245712324977
         0.00247602420859
         0.00249492516741
         0.00251382612623
         0.00253272708505
         0.00255162804388
         0.0025705290027
         0.00258942972869
         0.00260833068751
         0.00262723164633
         0.00264613260515
         0.00266503356397
         0.00268393452279
         0.00270283548161
         0.00272173644044
         0.00274063739926
         0.00275953835808
         0.0027784393169
         0.00279734027572
         0.00281624123454
         0.00283514219336
         0.00285404315218
         0.002872944111
         0.00289184506983
         0.00291074602865
         0.00292964698747
         0.00294854794629
         0.00296744867228
         0.0029863496311
         0.00300525058992
         0.00302415154874
         0.00304305250756
         0.00306195346639
         0.00308085442521
         0.00309975538403
         0.00311865634285
         0.00313767930493
         0.003156962106
         0.00317631382495
         0.0031957346946
         0.00321522448212
         0.00323478342034
         0.00325441174209
         0.00327410921454
         0.00329387630336
         0.00331371254288
         0.00333361839876
         0.003353593871
         0.0033736389596
         0.00339375366457
         0.00341393845156
         0.00343419285491
         0.00345451710746
         0.00347491167486
         0.00349537609145
         0.00351591059007
         0.00353651540354
         0.00355719029903
         0.00357793574221
         0.00359875150025
         0.00361963780597
         0.00364059442654
         0.00366162182763
         0.00368272000924
         0.00370388873853
         0.00372512848116
         0.00374643900432
         0.00376782030798
         0.00378927285783
         0.00381079642102
         0.00383239099756
         0.0038540570531
         0.003875794122
         0.00389760266989
         0.0039194826968
         0.00394143396989
         0.00396345695481
         0.00398555165157
         0.00400771806017
         0.0040299561806
         0.00405226601288
         0.00407464755699
         0.0040971012786
         0.00411962671205
         0.00414222478867
         0.00416489457712
         0.00418763654307
         0.00421045115218
         0.00423333793879
         0.00425629690289
         0.00427932851017
         0.0043024327606
         0.00432560918853
         0.00434885872528
         0.00437218090519
         0.00439557572827
         0.00441904366016
         0.00444258423522
         0.0044661979191
         0.0044898847118
         0.00451364461333
         0.00453747762367
         0.0045613842085
         0.00458536390215
         0.00460941670462
         0.00463354308158
         0.00465774303302
         0.00468201655895
         0.00470636365935
         0.0047307847999
         0.00475527951494
         0.00477984780446
         0.00480449013412
         0.00482920650393
         0.00485399644822
         0.00487886089832
         0.00490379938856
         0.00492881191894
         0.00495389895514
         0.00497906049713
         0.00500429607928
         0.00502960616723
         0.00505499076098
         0.00508044986054
         0.00510598393157
         0.00513159250841
         0.00515727559105
         0.00518303411081
         0.00520886713639
         0.00523477513343
         0.00526075810194
         0.00528681604192
         0.00531294941902
         0.00533915776759
         0.00536544155329
         0.00539180031046
         0.00541823497042
         0.00544474460185
         0.00547133013606
         0.0054979911074
         0.00552472751588
         0.00555153982714
         0.00557842804119
         0.00560539169237
         0.00563243124634
         0.0056595467031
         0.00568673852831
         0.00571400625631
         0.0057413498871
         0.00576876988634
         0.00579626625404
         0.00582383852452
         0.00585148762912
         0.0058792126365
         0.005907014478
         0.00593489268795
         0.00596284773201
         0.00599087914452
         0.00601898785681
         0.00604717247188
         0.00607543438673
         0.00610377360135
         0.00613218918443
         0.00616068206728
         0.00618925178424
         0.00621789880097
         0.00624662311748
         0.0062754242681
         0.00630430318415
         0.00633325939998
         0.00636229291558
         0.00639140373096
         0.00642059277743
         0.00644985865802
         0.0064792027697
         0.00650862418115
         0.0065381238237
         0.00656770076603
         0.00659735593945
         0.00662708934397
         0.00665690051392
         0.0066867894493
         0.00671675708145
         0.00674680247903
         0.00677692657337
         0.00680712843314
         0.00683740898967
         0.00686776777729
         0.00689820526168
         0.00692872144282
         0.00695931585506
         0.00698998896405
         0.00702074123546
         0.00705157173797
         0.0070824814029
         0.00711346976459
         0.0071445372887
         0.00717568350956
         0.00720690889284
         0.00723821343854
         0.00726959714666
         0.00730106048286
         0.00733260251582
         0.00736422417685
         0.00739592500031
         0.00742770545185
         0.00745956553146
         0.00749150523916
         0.00752352457494
         0.00755562353879
         0.00758780213073
         0.00762006035075
         0.0076523986645
         0.007684817072
         0.00771731510758
         0.00774989323691
         0.00778255192563
         0.00781529024243
         0.00784810911864
         0.00788100808859
         0.00791398715228
         0.00794704630971
         0.0079801864922
         0.00801340676844
         0.00804670806974
         0.00808008946478
         0.00811355188489
         0.00814709439874
         0.00818071793765
         0.00821442250162
         0.00824820809066
         0.00828207470477
         0.00831602141261
         0.00835005007684
         0.00838415883482
         0.00841834954917
         0.0084526212886
         0.00848697405308
         0.00852140877396
         0.0085559245199
         0.0085905212909
         0.00862520001829
         0.00865995977074
         0.00869480147958
         0.00872972421348
         0.00876472983509
         0.00879981648177
         0.00883498415351
         0.00887023471296
         0.00890556722879
         0.00894098170102
         0.0089764771983
         0.0090120555833
         0.00904771592468
         0.00908345822245
         0.00911928340793
         0.00915519054979
         0.00919117964804
         0.009227251634
         0.00926340557635
         0.0092996424064
         0.00933596212417
         0.00937236379832
         0.00940884836018
         0.00944541580975
         0.00948206614703
         0.00951879844069
         0.00955561455339
         0.0095925135538
         0.00962949451059
         0.00966655928642
         0.00970370694995
         0.00974093843251
         0.00977825187147
         0.00981565006077
         0.00985313020647
         0.00989069417119
         0.00992834195495
         0.00996607262641
         0.0100038871169
         0.0100417854264
         0.0100797666237
         0.0101178316399
         0.0101559804752
         0.0101942131296
         0.0102325305343
         0.0102709308267
         0.0103094149381
         0.0103479828686
         0.0103866355494
         0.0104253720492
         0.0104641932994
         0.0105030974373
         0.0105420863256
         0.0105811599642
         0.0106203174219
         0.0106595596299
         0.0106988865882
         0.0107382973656
         0.0107777928934
         0.0108173731714
         0.0108570381999
         0.0108967879787
         0.0109366225079
         0.0109765417874
         0.0110165458173
         0.0110566345975
         0.0110968081281
         0.0111370673403
         0.0111774113029
         0.0112178409472
         0.0112583553419
         0.0112989544868
         0.0113396393135
         0.0113804098219
         0.0114212650806
         0.011462206021
         0.011503232643
         0.0115443449467
         0.0115855420008
         0.0116268256679
         0.0116681940854
         0.0117096491158
         0.0117511898279
         0.0117928152904
         0.0118345282972
         0.0118763260543
         0.0119182104245
         0.0119601804763
         0.0120022362098
         0.0120443785563
         0.0120866075158
         0.012128922157
         0.0121713234112
         0.012213810347
         0.0122563838959
         0.0122990440577
         0.0123417908326
         0.0123846242204
         0.0124275442213
         0.0124705508351
         0.012513644062
         0.0125568239018
         0.0126000903547
         0.0126434443519
         0.012686884962
         0.0127304121852
         0.0127740260214
         0.0128177274019
         0.0128615163267
         0.0129053918645
         0.0129493549466
         0.0129934046417
         0.0130375418812
         0.013081766665
         0.0131260789931
         0.0131704788655
         0.0132149653509
         0.013259540312
         0.0133042018861
         0.0133489519358
         0.0133937895298
         0.0134387146682
         0.0134837273508
         0.0135288285092
         0.0135740172118
         0.0136192934588
         0.0136646581814
         0.0137101104483
         0.0137556511909
         0.0138012794778
         0.0138469971716
         0.0138928014785
         0.0139386951923
         0.0139846773818
         0.0140307471156
         0.0140769053251
         0.0141231529415
         0.0141694881022
         0.0142159117386
         0.0142624247819
         0.0143090263009
         0.0143557153642
         0.0144024947658
         0.0144493617117
         0.0144963180646
         0.0145433638245
         0.01459049806
         0.0146377207711
         0.0146850328892
         0.0147324344143
         0.0147799253464
         0.0148275047541
         0.0148751735687
         0.0149229317904
         0.0149707794189
         0.0150187155232
         0.0150667419657
         0.0151148578152
         0.0151630630717
         0.0152113577351
         0.0152597418055
         0.0153082162142
         0.0153567800298
         0.0154054332525
         0.0154541768134
         0.0155030097812
         0.0155519330874
         0.0156009458005
         0.015650048852
         0.0156992413104
         0.0157485250384
         0.0157978981733
         0.0158473625779
         0.0158969145268
         0.015946559608
         0.0159962940961
         0.0160461179912
         0.0160960331559
         0.0161460377276
         0.0161961335689
         0.0162463206798
         0.0162965971977
         0.0163469649851
         0.0163974240422
         0.0164479725063
         0.0164986141026
         0.0165493432432
         0.0166001655161
         0.0166510790586
         0.0167020820081
         0.0167531762272
         0.0168043617159
         0.0168556384742
         0.0169070065022
         0.0169584657997
         0.0170100163668
         0.0170616582036
         0.01711339131
         0.017165215686
         0.0172171313316
         0.0172691382468
         0.0173212364316
         0.0173734277487
         0.0174257084727
         0.017478082329
         0.0175305493176
         0.0175831057131
         0.0176357552409
         0.0176884960383
         0.0177413281053
         0.0177942533046
         0.0178472697735
         0.017900377512
         0.0179535783827
         0.0180068705231
         0.0180602557957
         0.0181137342006
         0.0181673020124
         0.0182209648192
         0.0182747188956
         0.0183285642415
         0.0183825045824
         0.0184365361929
         0.018490659073
         0.0185448750854
         0.01859918423
         0.0186535865068
         0.018708081916
         0.0187626685947
         0.0188173484057
         0.018872121349
         0.0189269874245
         0.0189819466323
         0.0190369971097
         0.0190921425819
         0.0191473793238
         0.0192027110606
         0.0192581340671
         0.0193136520684
         0.019369263202
         0.0194249656051
         0.0194807630032
         0.0195366535336
         0.0195926371962
         0.0196487158537
         0.0197048857808
         0.0197611507028
         0.0198175087571
         0.0198739599437
         0.0199305061251
         0.0199871454388
         0.0200438778847
         0.0201007053256
         0.0201576258987
         0.0202146396041
         0.0202717483044
         0.0203289501369
         0.0203862469643
         0.0204436387867
         0.0205011237413
         0.0205587018281
         0.0206163749099
         0.0206741429865
         0.0207320041955
         0.0207899603993
         0.020848011598
         0.020906155929
         0.0209643952549
         0.0210227295756
         0.0210811588913
         0.0211396813393
         0.0211982987821
         0.0212570112199
         0.0213158186525
         0.0213747210801
         0.0214337185025
         0.0214928090572
         0.0215519964695
         0.0216112788767
         0.0216706544161
         0.0217301268131
         0.0217896942049
         0.0218493547291
         0.0219091121107
         0.0219689644873
         0.0220289137214
         0.0220889560878
         0.0221490934491
         0.022209327668
         0.0222696568817
         0.0223300810903
         0.0223906021565
         0.0224512182176
         0.0225119292736
         0.0225727371871
         0.0226336382329
         0.0226946379989
         0.0227557327598
         0.0228169225156
         0.0228782072663
         0.0229395907372
         0.0230010673404
         0.0230626426637
         0.0231243111193
         0.0231860782951
         0.0232479404658
         0.0233098976314
         0.0233719535172
         0.0234341043979
         0.0234963502735
         0.0235586948693
         0.02362113446
         0.0236836709082
         0.0237463023514
         0.0238090325147
         0.0238718576729
         0.0239347796887
         0.0239978004247
         0.0240609161556
         0.024124128744
         0.0241874363273
         0.0242508426309
         0.0243143457919
         0.0243779458106
         0.0244416426867
         0.0245054364204
         0.0245693270117
         0.0246333144605
         0.0246974006295
         0.0247615817934
         0.0248258616775
         0.0248902384192
         0.0249547120184
         0.0250192824751
         0.0250839516521
         0.0251487158239
         0.0252135805786
         0.0252785403281
         0.0253435987979
         0.0254087541252
         0.0254740081728
         0.0255393590778
         0.0256048087031
         0.0256703551859
         0.0257359985262
         0.0258017405868
         0.0258675813675
         0.0259335190058
         0.0259995553643
         0.0260656885803
         0.0261319205165
         0.0261982511729
         0.0262646786869
         0.026331204921
         0.0263978280127
         0.0264645516872
         0.0265313722193
         0.0265982914716
         0.0266653094441
         0.0267324242741
         0.0267996396869
         0.0268669519573
         0.0269343629479
         0.0270018726587
         0.0270694810897
         0.0271371882409
         0.0272049941123
         0.0272728987038
         0.0273409020156
         0.0274090059102
         0.0274772066623
         0.0275455061346
         0.0276139043272
         0.0276824031025
         0.0277509987354
         0.0278196949512
         0.0278884898871
         0.0279573835433
         0.0280263777822
         0.0280954707414
         0.0281646624207
         0.0282339528203
         0.0283033438027
         0.0283728335053
         0.028442421928
         0.0285121109337
         0.0285818986595
         0.0286517869681
         0.0287217739969
         0.0287918616086
         0.0288620479405
         0.0289323348552
         0.0290027204901
         0.0290732067078
         0.0291437916458
         0.0292144771665
         0.0292852632701
         0.0293561480939
         0.0294271335006
         0.0294982176274
         0.0295694041997
         0.0296406894922
         0.0297120753676
         0.0297835618258
         0.0298551470041
         0.0299268327653
         0.029998620972
         0.0300705078989
         0.0301424954087
         0.0302145816386
         0.030286770314
         0.0303590595722
         0.0304314494133
         0.0305039398372
         0.0305765289813
         0.0306492205709
         0.0307220127434
         0.0307949054986
         0.0308678988367
         0.0309409927577
         0.0310141891241
         0.0310874842107
         0.0311608817428
         0.0312343798578
         0.0313079804182
         0.0313816778362
         0.0314554795623
         0.0315293818712
         0.031603384763
         0.0316774919629
         0.0317516960204
         0.0318260043859
         0.0319004133344
         0.0319749228656
         0.0320495329797
         0.032124247402
         0.032199062407
         0.0322739779949
         0.0323489941657
         0.0324241146445
         0.0324993357062
         0.0325746573508
         0.0326500833035
         0.032725609839
         0.0328012369573
         0.0328769646585
         0.0329527966678
         0.03302872926
         0.0331047661602
         0.0331809036434
         0.0332571454346
         0.0333334840834
         0.0334099307656
         0.0334864743054
         0.0335631221533
         0.0336398743093
         0.0337167270482
         0.0337936803699
         0.0338707379997
         0.0339478999376
         0.0340251624584
         0.034102525562
         0.0341799929738
         0.0342575609684
         0.0343352332711
         0.034413009882
         0.0344908870757
         0.0345688685775
         0.0346469506621
         0.0347251370549
         0.0348034240305
         0.0348818153143
         0.0349603109062
         0.0350389070809
         0.0351176075637
         0.0351964123547
         0.0352753177285
         0.0353543274105
         0.0354334414005
         0.0355126559734
         0.0355919748545
         0.0356713980436
         0.0357509255409
         0.0358305536211
         0.0359102860093
         0.0359901227057
         0.0360700599849
         0.0361501015723
         0.036230251193
         0.0363104976714
         0.0363908521831
         0.036471311003
         0.0365518704057
         0.0366325341165
         0.0367133021355
         0.0367941744626
         0.0368751510978
         0.0369562283158
         0.0370374135673
         0.0371186994016
         0.0372000932693
         0.0372815877199
         0.0373631864786
         0.0374448895454
         0.0375266969204
         0.0376086086035
         0.0376906245947
         0.037772744894
         0.0378549695015
         0.0379372984171
         0.0380197316408
         0.0381022691727
         0.0381849110126
         0.0382676571608
         0.038350507617
         0.0384334623814
         0.0385165251791
         0.0385996885598
         0.0386829599738
         0.0387663319707
         0.038849812001
         0.0389333963394
         0.0390170812607
         0.0391008742154
         0.0391847752035
         0.0392687767744
         0.0393528863788
         0.039437096566
         0.0395214147866
         0.0396058373153
         0.0396903678775
         0.0397749990225
         0.0398597382009
         0.0399445816875
         0.0400295294821
         0.0401145853102
